X: 39026
T: Swan LK243
R: waltz
M: 3/4
K: Gmajor
|:GA|Bg fg Bd|A4Bc|B2G3A|BcA2GA|
Bg fg Bd|AB df g2|Bc B2 G2-|G4GA|
Bg fg Bd|A4Bc|B2G3A|BcA2GA|
Bg fg Bd|AB df g2|BcA3B|G4GF|
E2 EG DG|c2 cd EG|A4GA|BG AG FG|
E2 EG DG|c2 cB ce|cB cd EG|F4 GF|
E2 EG DG|c2 cd EG|A4GA|BG AG FG|
E2 EG DG|c2 cB ce|cB cd DF|G4 (3Bdf|
g2 g3 f|d4cB|cdG3B|cB cd ef|
g2 g3 f|d4cB|cdG3F|G4 (3Bdf|
g2 g3 f|d4cB|cdG3B|cB cd fa|
ba g2 gf|d4cB|cdG3A|G4:|

